X:0664
T:"Planxty Burke"                 0664
C:Turlough  O' Carolan
C:animated
Q:1/4=110
N:(#014 in O'Sullivan's Collection ):  http://www.sosyourmom.com/occ/tunes.html
N:Transposed from Bb
B:O'Neill's Music Of Ireland (The 1850) Lyon & Healy, Chicago, 1903 edition
Z:FROM O'NEILL'S TO NOTEWORTHY, FROM NOTEWORTHY TO ABC, MIDI AND .TXT BY VINCE BRENNAN 6-21-03 (HTTP://WWW.SOSYOURMOM.COM)
I:abc2nwc
M:6/8
L:1/8
K:D
"^vb"B(B/2c/2d/2e/2) f2e|def ecA|ABA ecA|ABA acA|
.B(B/2c/2d/2e/2) fdB|BcB fdB|a2a abc'|a2-~a f2||
(a/2b/2)|c'ba ba^g|a^gf efg|a^gf bag|a^gf ec^A|
.B(B/2c/2d/2e/2) fdB|BcB fdB|a2a abc'|a2-~a f2||
g|ab^g abg|a^gf ec^A|b2b bc'b|af^g a2g|
(^a/2b/2c').a bf^g|a^gf ec^A|b2f (^g/2a/2b)f|d3B2|]
